X:222
T:Flowers of Edinburgh
M:4/4
L:1/8
K:G
|:GE|"G"D2 DE G2 GA|BGBd cBAG|"D"FGFE DEFG|AFdF "Em"E2 GE|
"G"D2 DE G2 GA|BABd "C"efge|"G"dcBA "D"GFGA|"G"B2 G2 G2:|
|:ef|"G"g2 g2 gbag|"D"f2 f2 fagf|"C"edef gfed|"Em"B2 e2 e2 ge|
"G"dBGB d2 d2|"C"edef g2 fe|"G"dcBA "D"GFGA|"G"B2 G2 G2:|
